X: 563
T:Faral O'Gara (flute range)
M:4/4
L:1/8
N:Posted to the woodenflute mailing list, August 2002
Z:Norman Sams
K:D
E|FD(3DED FDFA|BFAF EABc|d2 cd (3Bcd AF|G2 FG E2D2|
FD (3DED FDFA|BFAF GABc|dBBA (3Bcd AF|GFEG FD D2:|
e|fd (3dcd fdag|fagf edBc|dBBA Bcde|fagfe4|
[1fd (3dcd fdge|fagf edBc|dBBA BdAF|GFEG FDD2:|
[2fagf edBc|defd BAFD|FD (3DED FDFA|BFAF D4||

